src/DGGeoclicker/skin/light/img/DGPopup__entranceIcon_light.svg

<svg xmlns="http://www.w3.org/2000/svg" width="12" height="12"><path fill="#70A3D8" d="M10 0h-8c-1.104 0-2 .896-2 2v2h2v-1c0-.553.447-1 1-1h6c.553 0 1 .447 1 1v6c0 .553-.447 1-1 1h-6c-.553 0-1-.447-1-1v-1h-2v2c0 1.104.896 2 2 2h8c1.104 0 2-.896 2-2v-8c0-1.104-.896-2-2-2zm-1 6l-4-3v2h-5v2h5v2z"/><path fill="#5982AD" d="M0 10c0 .812.485 1.506 1.18 1.82-.114-.251-.18-.527-.18-.82v-2h1v-1h-2v2zm10-10h-8c-1.104 0-2 .896-2 2v2h1v-1c0-1.104.896-2 2-2h8c.293 0 .569.066.82.18-.314-.695-1.008-1.18-1.82-1.18zm.643 3.25l-.885-.906-.025-.012c.162.178.267.409.267.668v6c0 .553-.447 1-1 1h-6c-.216 0-.414-.056-.578-.172l-.022.004.928.899c.178.164.411.269.672.269h6c.553 0 1-.447 1-1v-6c0-.304-.143-.566-.357-.75zm-4.643.75v-.25l-1-.75v2h-5v2h1v-1h5z"/></svg>

<svg xmlns="http://www.w3.org/2000/svg" width="12" height="12">
    <path d="M 10,0 H 2 C 0.896,0 0,0.896 0,2 V 4 H 2 V 3 C 2,2.447 2.447,2 3,2 h 6 c 0.553,0 1,0.447 1,1 v 6 c 0,0.553 -0.447,1 -1,1 H 3 C 2.447,10 2,9.553 2,9 V 8 H 0 v 2 c 0,1.104 0.896,2 2,2 h 8 c 1.104,0 2,-0.896 2,-2 V 2 C 12,0.896 11.104,0 10,0 z M 9,6 5,3 V 5 H 0 v 2 h 5 v 2 z" fill="#70a3d8"/>
    <path d="m 0,10 c 0,0.812 0.485,1.506 1.18,1.82 C 1.066,11.569 1,11.293 1,11 V 9 H 2 V 8 H 0 v 2 z M 10,0 H 2 C 0.896,0 0,0.896 0,2 V 4 H 1 V 3 C 1,1.896 1.896,1 3,1 h 8 c 0.293,0 0.569,0.066 0.82,0.18 C 11.506,0.485 10.812,0 10,0 z M 10.643,3.25 9.758,2.344 9.733,2.332 C 9.895,2.51 10,2.741 10,3 v 6 c 0,0.553 -0.447,1 -1,1 H 3 C 2.784,10 2.586,9.944 2.422,9.828 L 2.4,9.832 3.328,10.731 C 3.506,10.895 3.739,11 4,11 h 6 c 0.553,0 1,-0.447 1,-1 V 4 C 11,3.696 10.857,3.434 10.643,3.25 z M 6,4 V 3.75 L 5,3 V 5 H 0 V 7 H 1 V 6 h 5 z" fill="#5982ad"/>
</svg>
